packages/assets/static/images/icons/chart.svg

<svg width="24" height="24" viewBox="0 0 24 24" xmlns="http://www.w3.org/2000/svg">
<path d="M22.625 19.5C22.625 19.7984 22.5065 20.0845 22.2955 20.2955C22.0845 20.5065 21.7984 20.625 21.5 20.625H3.5C3.20163 20.625 2.91548 20.5065 2.7045 20.2955C2.49353 20.0845 2.375 19.7984 2.375 19.5V4.5C2.375 4.20163 2.49353 3.91548 2.7045 3.7045C2.91548 3.49353 3.20163 3.375 3.5 3.375C3.79837 3.375 4.08452 3.49353 4.2955 3.7045C4.50647 3.91548 4.625 4.20163 4.625 4.5V13.7812L8.70406 9.70125C8.80858 9.59637 8.93277 9.51315 9.06952 9.45637C9.20626 9.39959 9.35287 9.37036 9.50094 9.37036C9.649 9.37036 9.79561 9.39959 9.93236 9.45637C10.0691 9.51315 10.1933 9.59637 10.2978 9.70125L12.5 11.9062L16.5312 7.875H15.5C15.2016 7.875 14.9155 7.75647 14.7045 7.5455C14.4935 7.33452 14.375 7.04837 14.375 6.75C14.375 6.45163 14.4935 6.16548 14.7045 5.9545C14.9155 5.74353 15.2016 5.625 15.5 5.625H19.25C19.5484 5.625 19.8345 5.74353 20.0455 5.9545C20.2565 6.16548 20.375 6.45163 20.375 6.75V10.5C20.375 10.7984 20.2565 11.0845 20.0455 11.2955C19.8345 11.5065 19.5484 11.625 19.25 11.625C18.9516 11.625 18.6655 11.5065 18.4545 11.2955C18.2435 11.0845 18.125 10.7984 18.125 10.5V9.46875L13.2959 14.2987C13.1914 14.4036 13.0672 14.4868 12.9305 14.5436C12.7937 14.6004 12.6471 14.6296 12.4991 14.6296C12.351 14.6296 12.2044 14.6004 12.0676 14.5436C11.9309 14.4868 11.8067 14.4036 11.7022 14.2987L9.5 12.0938L4.625 16.9688V18.375H21.5C21.7984 18.375 22.0845 18.4935 22.2955 18.7045C22.5065 18.9155 22.625 19.2016 22.625 19.5Z"/>
</svg>

<svg viewBox="0 0 24 24" xmlns="http://www.w3.org/2000/svg" aria-hidden="true" fill="currentColor" height="24px" width="24px"><path d="M22.625 19.5a1.125 1.125 0 0 1-1.125 1.125h-18A1.125 1.125 0 0 1 2.375 19.5v-15a1.125 1.125 0 0 1 2.25 0v9.281l4.08-4.08a1.125 1.125 0 0 1 1.593 0l2.202 2.205 4.031-4.031H15.5a1.125 1.125 0 0 1 0-2.25h3.75a1.125 1.125 0 0 1 1.125 1.125v3.75a1.125 1.125 0 1 1-2.25 0V9.469l-4.83 4.83a1.125 1.125 0 0 1-1.593 0L9.5 12.094l-4.875 4.875v1.406H21.5a1.125 1.125 0 0 1 1.125 1.125"/></svg>
